X:1
T:Carnaval
T:Carnaval
T:  "Little Scenes on Four Notes" No. 12 - Chopin
T:Robert Schumann, Op. 9
C:Robert Schumann
%%score { ( 1 3 ) | 2 }
L:1/8
Q:1/4=152
M:6/4
K:Ab
V:1 treble nm="Piano" snm="Pno."
V:3 treble 
V:2 bass 
V:1
 z6 z2!mf! e2 z e |: e3 f e2 z2 e2 f2 | _g2 f2 e2 d2 e2 c2 | d4 z2 z2 f2 z f | f3 =g f2 z2 f2 g2 | %5
 a2 g2 f2 e2{/g} f2 d2 | c2 z2 z2 z2 e2 c2 | B4 =A2-[Q:1/4=142]"^ritard" A2!mp! B2 c2 | %8
 d6-[Q:1/4=132] d2 f2 d2 | c[Q:1/4=80]!p!d'c'[Q:1/4=132]=b_bg =ec_edcB | %10
[Q:1/4=152]!mp! A6 z2[Q:1/4=132]"^ritard"!mf! G2 A2 | =A6- A2[Q:1/4=112]"^riten." ^G2 A2 | %12
 B6 e4 =B2 |1[Q:1/4=132]"^a tempo" c2 z4 z2!mf! e2 z e :|2[Q:1/4=104] c2 z2 z2 A6!mp! |] %15
V:2
!mp!!ped! A,,E,A,[I:staff -1]CEA cAE[I:staff +1]CA,E,!ped-up! |: %1
!mf!!ped! !>!_G,,!mp!E,_G,[I:staff -1]B,E_G BGE[I:staff +1]B,G,E,!ped-up! | %2
!mf!!ped! !>!F,,!mp!E,F,=A,[I:staff -1]CE FEC[I:staff +1]A,F,E,!ped-up! | %3
!ped! B,,F,B,[I:staff -1]DFB dBF[I:staff +1]DB,F,!ped-up! | %4
!ped! A,,F,A,C[I:staff -1]FA cAF[I:staff +1]CA,F,!ped-up! | %5
!mf!!ped! !>!F,,!mp!D,F,A,DF!ped-up!!mf!!ped! !>!G,,!mp!B,,E,G,B,E!ped-up! | %6
!ped! A,,E,A,CEA cAECA,E,!ped-up! |!mf!!ped! G,,!mp!D,=E,=A,B,D =ED!p!B,G,E,D,!ped-up! | %8
!mp!!ped! _G,,!p!D,=E,_G,B,=E!ped-up!!mp!!ped! F,,!p!D,F,B,DF!ped-up! | %9
"^(rubato)"!ped! =E,,!pp!C,=E,G,B,C =EG_ED!ped-up!CB, | %10
!mp!!ped! F,,!p!C,F,A,CF AF!mp!CA,F,C,!ped-up! | %11
!mf!!ped! _F,,!mp!=A,,D,G,=A,D =GDA,G,D,A,,!ped-up! |!ped! E,,B,,E,_A,B,D AGE=B,G,E,!ped-up! |1 %13
!mp!!ped! A,,E,A,[I:staff -1]CEA cAE[I:staff +1]CA,E,!ped-up! :|2 %14
!p!!ped! A,,E,!pp!A,[I:staff -1]CEA-[I:staff +1] z2 z4!ped-up! |] %15
V:3
 x12 |: x12 | x12 | x12 | x12 | x12 | x12 | x12 | x12 | c6 x2 x4 | x12 | x12 | x12 |1 x12 :|2 %14
 x12 |] %15

